X:1 
T:The Bard's song 
C:Blind Guardian. Mod by Achazia 
N:Harp 
Q:1/4=75 
V:1 
M:4/4 
L:1/8 
K:C 
z8 |z8 |z8 |cd/c/ BB AG GA/B/ |cB cd cd/c/ BB |AG GA/B/ c e3- |e z7 |z8 |z8 |c4 d2 c2 |B G3 A/B/c/B//c// B//G//A3/2- |A2 A2 B//c//B//A//B G2 |AB A2 GF/E/ D2- |D z7 |z8 |z d2 d e2 ef-|f/e/d e2 ef3/2 e/d | 
e2 ef3/2 e/ d2 z |z g2 g dA/d/ e/f/g/a/ |g/f/e/d/ [c2f2] [cf] [d3g3] |z3 e2 f2 z/ e/ |d e2 e f3/2e/ de-|ee f3/2e/ d2 z2 |z8 |z2 A,2 B,//C//B,/A, A,2 |B,//C//B,/A, E3/2E/ ^F2 A,2 |B,//C//B,/A, A,2 B,//C//B,/A, E3/2E/ | 
^F2 A, B,2 C EB, |z G,2 G,2 A,/G,//A,// G,2 |E/D/D//D//B,/ C D2 E DG |z/ F/F//F//D/ D F2 A G2- |G2 z6 |z8 |z8 |z8 |z2 c4 dc |z B G3 A/B/ c/B//c//B//G//A/- |A4 AB//c//B//A// BG |z A B A2 G F/E/D |z8 | 
z2 d2 d e2 e |f3/2e/ d e2 e f3/2e/ |d e2 e f3/2e/ d2 |z2 g2 gd A/d/e/f/ |g/a/g/f/ e/d/ [c2f2] [cf] [g2-d2-] |[dg] d2 d e2 ef-|f/e/d e2 ef3/2 e/d |e2 ef3/2 e/ d2 z |z g2 g dA/d/ e/f/g/a/ |g/f/e/d/ [c2f2] [cf] [d2g2] z |]
